svg/weather/celsius_fill.svg

<?xml version="1.0" encoding="UTF-8"?>
<svg width="24px" height="24px" viewBox="0 0 24 24" version="1.1" xmlns="http://www.w3.org/2000/svg" xmlns:xlink="http://www.w3.org/1999/xlink">
    <title>celsius_fill</title>
    <g id="Icon" stroke="none" stroke-width="1" fill="none" fill-rule="evenodd">
        <g id="Weather" transform="translate(-1.000000, -144.000000)">
            <g id="celsius_fill" transform="translate(1.000000, 144.000000)">
                <path d="M24,0 L24,24 L0,24 L0,0 L24,0 Z M12.5935,23.2578 L12.5819,23.2595 L12.5109,23.295 L12.4919,23.2987 L12.4767,23.295 L12.4057,23.2595 C12.3958,23.2564 12.387,23.259 12.3821,23.2649 L12.378,23.2758 L12.3609,23.7031 L12.3659,23.7235 L12.3769,23.7357 L12.4805,23.8097 L12.4953,23.8136 L12.5071,23.8097 L12.6107,23.7357 L12.6233,23.7197 L12.6267,23.7031 L12.6096,23.2758 C12.6076,23.2657 12.601,23.2593 12.5935,23.2578 Z M12.8584,23.1453 L12.8445,23.1473 L12.6598,23.2397 L12.6499,23.2499 L12.6472,23.2611 L12.6651,23.6906 L12.6699,23.7034 L12.6784,23.7105 L12.8793,23.8032 C12.8914,23.8069 12.9022,23.803 12.9078,23.7952 L12.9118,23.7812 L12.8777,23.1665 C12.8753,23.1546 12.8674,23.147 12.8584,23.1453 Z M12.143,23.1473 C12.1332,23.1424 12.1222,23.1453 12.1156,23.1526 L12.1099,23.1665 L12.0758,23.7812 C12.0751,23.7927 12.0828,23.8019 12.0926,23.8046 L12.1083,23.8032 L12.3092,23.7105 L12.3186,23.7024 L12.3225,23.6906 L12.3404,23.2611 L12.3372,23.2485 L12.3278,23.2397 L12.143,23.1473 Z" id="MingCute" fill-rule="nonzero"></path>
                <path d="M6,3.5 C4.067,3.5 2.5,5.067 2.5,7 C2.5,8.933 4.067,10.5 6,10.5 C7.933,10.5 9.5,8.933 9.5,7 C9.5,5.067 7.933,3.5 6,3.5 Z M5.5,7 C5.5,6.72386 5.72386,6.5 6,6.5 C6.27614,6.5 6.5,6.72386 6.5,7 C6.5,7.27614 6.27614,7.5 6,7.5 C5.72386,7.5 5.5,7.27614 5.5,7 Z M15.5,3.5 C12.7386,3.5 10.5,5.73858 10.5,8.5 L10.5,15.5 C10.5,18.2614 12.7386,20.5 15.5,20.5 L16.5,20.5 C19.2614,20.5 21.5,18.2614 21.5,15.5 L21.5,15 C21.5,14.1716 20.8284,13.5 20,13.5 C19.1716,13.5 18.5,14.1716 18.5,15 L18.5,15.5 C18.5,16.6046 17.6046,17.5 16.5,17.5 L15.5,17.5 C14.3954,17.5 13.5,16.6046 13.5,15.5 L13.5,8.5 C13.5,7.39543 14.3954,6.5 15.5,6.5 L16.5,6.5 C17.6046,6.5 18.5,7.39543 18.5,8.5 L18.5,9 C18.5,9.82843 19.1716,10.5 20,10.5 C20.8284,10.5 21.5,9.82843 21.5,9 L21.5,8.5 C21.5,5.73858 19.2614,3.5 16.5,3.5 L15.5,3.5 Z" id="形状" fill="#09244B"></path>
            </g>
        </g>
    </g>
</svg>

<svg xmlns="http://www.w3.org/2000/svg" width="24" height="24"><g fill="none" fill-rule="evenodd"><path d="M24 0v24H0V0h24ZM12.594 23.258l-.012.002-.071.035-.02.004-.014-.004-.071-.036c-.01-.003-.019 0-.024.006l-.004.01-.017.428.005.02.01.013.104.074.015.004.012-.004.104-.074.012-.016.004-.017-.017-.427c-.002-.01-.009-.017-.016-.018Zm.264-.113-.014.002-.184.093-.01.01-.003.011.018.43.005.012.008.008.201.092c.012.004.023 0 .029-.008l.004-.014-.034-.614c-.003-.012-.01-.02-.02-.022Zm-.715.002a.023.023 0 0 0-.027.006l-.006.014-.034.614c0 .012.007.02.017.024l.015-.002.201-.093.01-.008.003-.011.018-.43-.003-.012-.01-.01-.184-.092Z"/><path fill="#09244B" d="M6 3.5a3.5 3.5 0 1 0 0 7 3.5 3.5 0 0 0 0-7ZM5.5 7a.5.5 0 1 1 1 0 .5.5 0 0 1-1 0Zm10-3.5a5 5 0 0 0-5 5v7a5 5 0 0 0 5 5h1a5 5 0 0 0 5-5V15a1.5 1.5 0 0 0-3 0v.5a2 2 0 0 1-2 2h-1a2 2 0 0 1-2-2v-7a2 2 0 0 1 2-2h1a2 2 0 0 1 2 2V9a1.5 1.5 0 0 0 3 0v-.5a5 5 0 0 0-5-5h-1Z"/></g></svg>
